build/img/app_logo.svg

<?xml version="1.0" encoding="UTF-8"?> <svg xmlns="http://www.w3.org/2000/svg" width="120" height="120" viewBox="0 0 120 120" fill="none"> <path d="M95.5102 0H24.4898C10.9645 0 0 10.9645 0 24.4898V95.5102C0 109.036 10.9645 120 24.4898 120H95.5102C109.036 120 120 109.036 120 95.5102V24.4898C120 10.9645 109.036 0 95.5102 0Z" fill="url(#paint0_linear)"></path> <path d="M24.0056 56.5813C24.3516 57.0082 24.8522 57.2811 25.3984 57.3407C25.9447 57.4004 26.4924 57.2418 26.9223 56.8997L28.8448 55.3543V87.6294C28.8467 88.6276 29.2437 89.5844 29.9491 90.2907C30.6544 90.9969 31.6107 91.3952 32.6088 91.3984H86.1411C87.1399 91.3958 88.097 90.9979 88.8033 90.2917C89.5095 89.5854 89.9075 88.6282 89.9101 87.6294V55.4205L91.7737 56.9193C92.1433 57.2115 92.6004 57.3711 93.0717 57.3723C93.3839 57.3727 93.6922 57.3015 93.9728 57.1644C94.2533 57.0273 94.4988 56.8279 94.6905 56.5813C95.0335 56.1508 95.1926 55.6022 95.133 55.0549C95.0733 54.5077 94.7998 54.0062 94.3721 53.6597L61.6072 27.316L60.8553 26.9413C60.386 26.7352 59.879 26.6287 59.3664 26.6287C58.8537 26.6287 58.3468 26.7352 57.8774 26.9413L57.0888 27.3062L24.3264 53.6523C23.8995 53.9983 23.6266 54.4989 23.567 55.0452C23.5074 55.5914 23.6659 56.1391 24.008 56.569" fill="white"></path> <path d="M72.5095 75.6369C73.5577 75.2161 74.5026 74.5736 75.2794 73.7536C76.0423 72.9361 76.6372 71.9767 77.0304 70.9299C77.4645 69.8395 77.6815 68.6749 77.6695 67.5014C77.6913 66.3151 77.4739 65.1365 77.0304 64.036C76.6362 63.0007 76.0411 62.0536 75.2794 61.2491C74.496 60.4326 73.5532 59.7857 72.5095 59.3487C71.3661 58.8931 70.1453 58.6627 68.9145 58.6703H63.8499V76.4083H68.9145C70.1513 76.3844 71.3718 76.1226 72.5095 75.6369ZM68.9145 53.3242C70.8669 53.313 72.8032 53.6772 74.6181 54.3969C76.3388 55.1095 77.9105 56.1387 79.2515 57.4312C80.5746 58.7177 81.6299 60.2533 82.3569 61.9495C83.1183 63.7008 83.4974 65.5944 83.4687 67.5038C83.488 69.4124 83.1093 71.304 82.3569 73.0581C81.6052 74.7412 80.5528 76.2733 79.2515 77.5789C77.9273 78.8778 76.3502 79.8906 74.6181 80.5544C72.8139 81.3145 70.872 81.6931 68.9145 81.6662H58.0508V53.3242H68.9145Z" fill="#231F20"></path> <path d="M43.9497 65.0572C43.1271 65.0563 42.3303 64.7703 41.6949 64.2478C41.0596 63.7254 40.6251 62.9988 40.4653 62.1919C40.3055 61.3851 40.4304 60.5477 40.8187 59.8226C41.207 59.0975 41.8348 58.5294 42.5949 58.2151C43.3551 57.9009 44.2007 57.8598 44.9877 58.0991C45.7747 58.3383 46.4544 58.8429 46.911 59.5271C47.3677 60.2112 47.5731 61.0326 47.4921 61.8511C47.4112 62.6697 47.0491 63.4349 46.4673 64.0164C46.1366 64.3467 45.7439 64.6086 45.312 64.7872C44.88 64.9658 44.4171 65.0575 43.9497 65.0572V65.0572ZM43.9497 52.8368C42.2363 52.8363 40.5612 53.344 39.1364 54.2956C37.7115 55.2472 36.6009 56.6 35.945 58.1829C35.2891 59.7658 35.1173 61.5076 35.4515 63.1881C35.7856 64.8686 36.6107 66.4122 37.8222 67.6238C39.0338 68.8353 40.5774 69.6604 42.2579 69.9946C43.9384 70.3287 45.6803 70.1569 47.2632 69.501C48.8461 68.8451 50.1989 67.7345 51.1505 66.3097C52.1021 64.8848 52.6098 63.2098 52.6093 61.4964C52.6086 59.1999 51.696 56.9977 50.0722 55.3738C48.4483 53.75 46.2461 52.8374 43.9497 52.8368" fill="#231F20"></path> <defs> <linearGradient id="paint0_linear" x1="60" y1="0" x2="60" y2="120" gradientUnits="userSpaceOnUse"> <stop stop-color="#7FB0F8"></stop> <stop offset="1" stop-color="#D5D3FF"></stop> </linearGradient> </defs> </svg>

<svg xmlns="http://www.w3.org/2000/svg" width="120" height="120" viewBox="0 0 120 120" fill="none"><path d="M95.51 0H24.49C10.965 0 0 10.964 0 24.49v71.02C0 109.036 10.964 120 24.49 120h71.02c13.526 0 24.49-10.964 24.49-24.49V24.49C120 10.965 109.036 0 95.51 0z" fill="url(#paint0_linear)"/><path d="M24.006 56.581a2.084 2.084 0 002.916.319l1.923-1.546V87.63a3.776 3.776 0 003.764 3.77H86.14a3.78 3.78 0 003.77-3.77V55.42l1.863 1.5c.37.291.826.451 1.298.452a2.047 2.047 0 001.618-.79 2.087 2.087 0 00-.318-2.922L61.607 27.316l-.752-.375a3.703 3.703 0 00-2.978 0l-.788.365-32.763 26.346a2.084 2.084 0 00-.318 2.917" fill="#fff"/><path d="M72.51 75.637a7.838 7.838 0 002.77-1.883 8.54 8.54 0 001.75-2.824 9.02 9.02 0 00.64-3.429 8.837 8.837 0 00-.64-3.465 8.402 8.402 0 00-1.75-2.787 8.26 8.26 0 00-2.77-1.9 9.553 9.553 0 00-3.596-.679H63.85v17.738h5.065a9.63 9.63 0 003.594-.771zm-3.596-22.313a15.235 15.235 0 015.704 1.073 14.882 14.882 0 014.633 3.034 13.988 13.988 0 013.106 4.519 13.425 13.425 0 011.112 5.554 13.75 13.75 0 01-1.112 5.554 15.164 15.164 0 01-3.106 4.52 13.532 13.532 0 01-4.633 2.976 14.189 14.189 0 01-5.703 1.112H58.05V53.324h10.864zM43.95 65.057a3.556 3.556 0 11.007-7.112 3.556 3.556 0 01-.007 7.112zm0-12.22a8.662 8.662 0 10-.005 17.324 8.662 8.662 0 00.005-17.324" fill="#231F20"/><defs><linearGradient id="paint0_linear" x1="60" y1="0" x2="60" y2="120" gradientUnits="userSpaceOnUse"><stop stop-color="#7FB0F8"/><stop offset="1" stop-color="#D5D3FF"/></linearGradient></defs></svg>
